X:28
T:Siperss Reith (?!)(fragment). CAM2.[29]
T:Cypress Wreath,aka. CAM2.[28]
B:Anon MS#2, early 19thC, Northumbria, Cocks Coll.
Z:Village Music Project 2016 Steve Mansfield
M:6/8
L:1/8
Q:3/8=75
N:Tune title illegible in Mss
N:B part of tune on page not in scan of mss
K:G
B/c/ | ded cBA | GDB GDc | BAG dcB | gdB ABc |
ded cBA | GDB GDc | B/c/dG A/B/cF | AGG G2 :: (d/c/)|"^page missing"zz |]

